svgs/thin/hockey-stick-puck.svg

<svg xmlns="http://www.w3.org/2000/svg" viewBox="0 0 640 512"><!--! Font Awesome Pro 6.6.0 by @fontawesome - https://fontawesome.com License - https://fontawesome.com/license (Commercial License) Copyright 2024 Fonticons, Inc. --><path d="M507.7 .9c3.9 2 5.5 6.9 3.4 10.8l-242.9 470c-9.6 18.6-28.8 30.3-49.8 30.3L48 512c-26.5 0-48-21.5-48-48l0-85.3c0-26.5 21.5-48 48-48l280.3 0L496.9 4.3c2-3.9 6.9-5.5 10.8-3.4zM320 346.7l-208 0L112 496l106.5 0c15 0 28.7-8.3 35.5-21.6l66-127.7zm-272 0c-17.7 0-32 14.3-32 32L16 464c0 17.7 14.3 32 32 32l48 0 0-149.3-48 0zM432 416c-17.7 0-32 14.3-32 32l0 16c0 17.7 14.3 32 32 32l160 0c17.7 0 32-14.3 32-32l0-16c0-17.7-14.3-32-32-32l-160 0zm-48 32c0-26.5 21.5-48 48-48l160 0c26.5 0 48 21.5 48 48l0 16c0 26.5-21.5 48-48 48l-160 0c-26.5 0-48-21.5-48-48l0-16z"/></svg>

<svg xmlns="http://www.w3.org/2000/svg" viewBox="0 0 640 512"><!--! Font Awesome Pro 6.4.2 by @fontawesome - https://fontawesome.com License - https://fontawesome.com/license (Commercial License) Copyright 2023 Fonticons, Inc. --><path d="M507.7 .9c3.9 2 5.5 6.9 3.4 10.8l-242.9 470c-9.6 18.6-28.8 30.3-49.8 30.3H48c-26.5 0-48-21.5-48-48V378.7c0-26.5 21.5-48 48-48H328.3L496.9 4.3c2-3.9 6.9-5.5 10.8-3.4zM320 346.7H112V496H218.5c15 0 28.7-8.3 35.5-21.6l66-127.7zm-272 0c-17.7 0-32 14.3-32 32V464c0 17.7 14.3 32 32 32H96V346.7H48zM432 416c-17.7 0-32 14.3-32 32v16c0 17.7 14.3 32 32 32H592c17.7 0 32-14.3 32-32V448c0-17.7-14.3-32-32-32H432zm-48 32c0-26.5 21.5-48 48-48H592c26.5 0 48 21.5 48 48v16c0 26.5-21.5 48-48 48H432c-26.5 0-48-21.5-48-48V448z"/></svg>
